public/library/confirmo-text-light.svg

<svg xmlns="http://www.w3.org/2000/svg" viewBox="0 0 100 16"><path fill="var(--token-cdc426a0-8a19-4677-90ff-7027f9e6dbca, rgb(34, 19, 77)) /* {&quot;name&quot;:&quot;dark blue&quot;} */" d="M2.315 8v-.034c0-2.38 1.74-4.291 4.145-4.291 1.436 0 2.513.607 3.518 1.511l1.417-1.58c-1.019-.944-2.183-1.647-3.923-1.84V0H5.3v1.808C2.134 2.326 0 4.912 0 8v.034c0 3.136 2.201 5.682 5.3 6.168V16h2.172v-1.779c1.732-.221 2.917-.983 4.013-2.087l-1.418-1.389c-1.076.972-2.064 1.58-3.607 1.58-2.405 0-4.145-1.945-4.145-4.325m16.781 4.325c-2.494 0-4.27-1.963-4.27-4.325v-.034c0-2.364 1.74-4.292 4.234-4.292S23.331 5.638 23.331 8v.034c0 2.363-1.74 4.291-4.235 4.291M12.511 8v.034c0 3.423 2.691 6.254 6.548 6.254 3.859 0 6.587-2.866 6.587-6.288v-.034c0-3.423-2.692-6.254-6.55-6.254S12.511 4.578 12.511 8m17.653-6.08h-2.046v12.16h2.171V5.429l6.926 8.651h1.85V1.92h-2.172v8.408Zm14.213 12.16V9.13h6.335V7.184h-6.335V3.866h7.142V1.92h-9.35v12.16Zm11.37 0V1.92H53.54v12.16Zm5.337-10.215h3.213c1.633 0 2.601.712 2.601 2.015v.036c0 1.233-1.005 2.032-2.583 2.032h-3.231Zm8.059 1.894c0-1.059-.378-1.963-1.041-2.623-.808-.764-2.047-1.216-3.625-1.216h-5.598v12.16h2.206V9.842h2.764l3.087 4.238h2.601l-3.392-4.604c1.758-.486 2.997-1.685 2.997-3.682Zm4.872-3.839h-2.351v12.16h2.171V5.394l3.929 5.698h.071l3.967-5.732v8.72h2.208V1.92h-2.351l-3.823 5.75Zm19.053 10.405c-2.495 0-4.271-1.963-4.271-4.325v-.034c0-2.364 1.74-4.292 4.234-4.292 2.495 0 4.271 1.964 4.271 4.326v.034c0 2.363-1.74 4.291-4.234 4.291M86.482 8v.034c0 3.423 2.691 6.254 6.549 6.254S99.617 11.422 99.617 8v-.034c0-3.423-2.691-6.254-6.549-6.254S86.482 4.578 86.482 8"/></svg>

<svg xmlns="http://www.w3.org/2000/svg" viewBox="0 0 100 16" id="svg12854117104"><path d="M 2.315 8 L 2.315 7.966 C 2.315 5.586 4.055 3.675 6.46 3.675 C 7.896 3.675 8.973 4.282 9.978 5.186 L 11.395 3.606 C 10.376 2.662 9.212 1.959 7.472 1.766 L 7.472 0 L 5.3 0 L 5.3 1.808 C 2.134 2.326 0 4.912 0 8 L 0 8.034 C 0 11.17 2.201 13.716 5.3 14.202 L 5.3 16 L 7.472 16 L 7.472 14.221 C 9.204 14 10.389 13.238 11.485 12.134 L 10.067 10.745 C 8.991 11.717 8.003 12.325 6.46 12.325 C 4.055 12.325 2.315 10.38 2.315 8 Z M 19.096 12.325 C 16.602 12.325 14.826 10.362 14.826 8 L 14.826 7.966 C 14.826 5.602 16.566 3.674 19.06 3.674 C 21.554 3.674 23.331 5.638 23.331 8 L 23.331 8.034 C 23.331 10.397 21.591 12.325 19.096 12.325 Z M 12.511 8 L 12.511 8.034 C 12.511 11.457 15.202 14.288 19.059 14.288 C 22.918 14.288 25.646 11.422 25.646 8 L 25.646 7.966 C 25.646 4.543 22.954 1.712 19.096 1.712 C 15.238 1.712 12.511 4.578 12.511 8 Z M 30.164 1.92 L 28.118 1.92 L 28.118 14.08 L 30.289 14.08 L 30.289 5.429 L 37.215 14.08 L 39.065 14.08 L 39.065 1.92 L 36.893 1.92 L 36.893 10.328 Z M 44.377 14.08 L 44.377 9.13 L 50.712 9.13 L 50.712 7.184 L 44.377 7.184 L 44.377 3.866 L 51.519 3.866 L 51.519 1.92 L 42.169 1.92 L 42.169 14.08 Z M 55.747 14.08 L 55.747 1.92 L 53.54 1.92 L 53.54 14.08 Z M 61.084 3.865 L 64.297 3.865 C 65.93 3.865 66.898 4.577 66.898 5.88 L 66.898 5.916 C 66.898 7.149 65.893 7.948 64.315 7.948 L 61.084 7.948 Z M 69.143 5.759 C 69.143 4.7 68.765 3.796 68.102 3.136 C 67.294 2.372 66.055 1.92 64.477 1.92 L 58.879 1.92 L 58.879 14.08 L 61.085 14.08 L 61.085 9.842 L 63.849 9.842 L 66.936 14.08 L 69.537 14.08 L 66.145 9.476 C 67.903 8.99 69.142 7.791 69.142 5.794 Z M 74.015 1.92 L 71.664 1.92 L 71.664 14.08 L 73.835 14.08 L 73.835 5.394 L 77.764 11.092 L 77.835 11.092 L 81.802 5.36 L 81.802 14.08 L 84.01 14.08 L 84.01 1.92 L 81.659 1.92 L 77.836 7.67 Z M 93.068 12.325 C 90.573 12.325 88.797 10.362 88.797 8 L 88.797 7.966 C 88.797 5.602 90.537 3.674 93.031 3.674 C 95.526 3.674 97.302 5.638 97.302 8 L 97.302 8.034 C 97.302 10.397 95.562 12.325 93.068 12.325 Z M 86.482 8 L 86.482 8.034 C 86.482 11.457 89.173 14.288 93.031 14.288 C 96.89 14.288 99.617 11.422 99.617 8 L 99.617 7.966 C 99.617 4.543 96.926 1.712 93.068 1.712 C 89.209 1.712 86.482 4.578 86.482 8 Z" fill="var(--token-cdc426a0-8a19-4677-90ff-7027f9e6dbca, rgb(34, 19, 77)) /* {&quot;name&quot;:&quot;Dark blue&quot;} */"/></svg>
